X: 17659
T: Holly Bush, The
R: jig
M: 6/8
K: Gmajor
BAG GDG|GDG ABc|BAG edc|BdB cBA|
BAG GDG|GDG ABc|BAG edB|def g3:|
|:gdd gdd|gdd dcB|Acc Acc|Acc cBA|
~B3 ~c3|BAG Adc|BAG edB|def g3:|

